assets/img/icons/ban.svg

<svg width="60" height="60" viewBox="0 0 60 60" fill="none" xmlns="http://www.w3.org/2000/svg">
<path d="M45.1392 49.1343C45.9404 49.9277 45.8337 51.2564 44.8447 51.798C40.2403 54.3192 34.7713 54.8296 30 54.8296C25.5221 54.8296 20.429 54.3805 16.0132 52.241C14.9663 51.7338 14.8203 50.3577 15.6469 49.5392L29.3174 36.0017C30.026 35.3001 31.1674 35.3 31.876 36.0017L45.1392 49.1343ZM24.124 28.3248C24.8425 29.0363 24.8425 30.1972 24.124 30.9087L10.4665 44.4332C9.64837 45.2434 8.29008 45.098 7.77645 44.0675C6.0433 40.5904 5 36.0139 5 29.9995C5.00005 23.662 6.15866 18.9214 8.06221 15.3811C8.5968 14.3868 9.92564 14.2656 10.7278 15.0599L24.124 28.3248ZM49.6707 15.8482C50.4975 15.0295 51.8718 15.1885 52.3735 16.2384C54.0167 19.6766 55 24.1602 55 29.9995C55 35.5203 54.1206 39.8293 52.636 43.1888C52.1566 44.2734 50.7534 44.4582 49.9108 43.6238L37.0703 30.9087C36.3519 30.1972 36.3519 29.0362 37.0704 28.3248L49.6707 15.8482ZM30 5.17044C34.5821 5.17044 39.8081 5.64055 44.2935 7.91067C45.3203 8.43032 45.4521 9.78986 44.6344 10.5995L31.8759 23.232C31.1674 23.9335 30.026 23.9335 29.3174 23.232L16.1725 10.2171C15.3295 9.38242 15.5017 7.97624 16.5849 7.49256C20.8647 5.58164 25.7142 5.17044 30 5.17044Z" fill="#BF1F1F"/>
</svg>

<svg width="60" height="60" fill="none" xmlns="http://www.w3.org/2000/svg"><path d="M45.14 49.134c.8.794.694 2.122-.295 2.664C40.24 54.319 34.77 54.83 30 54.83c-4.478 0-9.571-.45-13.987-2.589-1.047-.507-1.193-1.883-.366-2.702l13.67-13.537a1.818 1.818 0 0 1 2.559 0l13.263 13.132Zm-21.016-20.81a1.818 1.818 0 0 1 0 2.585L10.467 44.433c-.819.81-2.177.665-2.69-.365C6.042 40.59 5 36.014 5 30c0-6.338 1.159-11.08 3.062-14.62.535-.994 1.864-1.115 2.666-.321l13.396 13.265Zm25.547-12.476c.827-.819 2.2-.66 2.703.39C54.017 19.677 55 24.16 55 30c0 5.52-.88 9.83-2.364 13.189-.48 1.084-1.883 1.27-2.725.435L37.07 30.909a1.818 1.818 0 0 1 0-2.584l12.6-12.477ZM30 5.17c4.582 0 9.808.47 14.294 2.74 1.026.52 1.158 1.88.34 2.69L31.876 23.232a1.818 1.818 0 0 1-2.559 0L16.172 10.217c-.843-.835-.67-2.24.413-2.724C20.865 5.582 25.715 5.17 30 5.17Z" fill="#BF1F1F"/></svg>
